X:1
T:Concerto Grosso
T:Op. 6, No. 12
T:G. F. Handel
T:Violin 1 Concertino
L:1/8
Q:1/4=48
M:4/4
K:D
V:1 treble nm="Violins 1"
V:1
"^Largo" b2 z/ F/B/>d/ dc z2 | c'2 z/ c/e/>e/ ed z2 | d'2 z/ A/d/>f/ fe z"^Solo" a | ag- gf e2 d2 | %4
"^Tutti" c2 B>B B2 z d | cA/>^G/ G>F F2 z2 | ^D2 z/"^Solo" B/f/>a/ g/>f/e z2 | %7
"^Tutti" C2 z/"^Solo" A/e/>g/ f/>e/d z/"^Tutti" D/A/>=c/ | =cB z/!p! E/B/>d/ d^c z/!f! F/c/>e/ | %9
 ed z"^Solo" f ge dTc/>B/ | Bb/>^a/ b2- bc'fa | b"^Tutti"B e3 ^d/>c/ dB | %12
 z/ B/e- e/c/d/>b/ g/>f/f/>e/ e/>d/d/>c/ | c2 z/"^Solo" F/B/>c/ dB z/ B/d/>e/ | %14
 fd z/"^Tutti"!pp! A/A/>B/ =cA z/ A/c/>d/ |!f! e2- e/>d/d/>c/ c/>g/f/>e/ dc/>B/ | %16
 B2 z/"^Solo" a/d'/>c'/ b/>a/a/>b/ g/>f/g/>a/ | f/e/d z"^Tutti" g/>f/ e/>f/d/>c/ dc/>B/ | %18
 B2 z2 f2 z2 |[Q:1/4=72]"^Adagio" e3 f f4 |] %20
"^Solo"[Q:1/4=132]"^Allegro" (d'/c'/)(b/c'/) (d'/c'/)(d'/b/) c'f F2 | z8 | %22
 (g/f/)(e/f/) g/f/g/e/ fB B,2 | z GF^a b2 z f | g2 z2 z ED"^Tutti"f | %25
 ed/c/ c>B"^Solo" (B/^A/B/)d/ (c/B/c/)e/ | (d/c/d/)f/ (e/d/e/)g/ (f>b) (f>g) | %27
 f/g/f/g/ f/g/f/g/ f/g/f/g/ f/g/f/g/ | f/d'/f/d'/ f/d'/f/d'/ e/d'/e/d'/ e/d'/e/d'/ | %29
 e/c'/e/c'/ e/c'/e/c'/ d/c'/d/c'/ d/c'/d/c'/ | d/b/d/b/ d/b/d/b/ c/b/c/b/ c/b/c/b/ | %31
 c/a/c/a/ c/a/c/a/ c/^g/c/g/ c/g/c/g/ | c/a/c/a/ c/a/c/a/ B/a/B/a/ B/a/B/a/ | %33
 B/^g/B/g/ B/g/B/g/ Ac'gb | a/^g/f/g/ a/g/a/f/ gc C2 | A z z2 e z z2 | %36
 d'/c'/b/c'/ d'/c'/d'/b/ c'f F2 | z"^Tutti" DCc B2 z c' | d'DCc Bd'c'b | %39
 a>b T^g3/2f/4g/4 a/b/a/b/ c'/b/c'/b/ | a/b/a/b/ c'/b/c'/b/ a/b/a/b/ c'c | %41
 BA ^G2 F"^Solo"a a/g/a/g/ | f/g/f/g/ a/g/a/g/ f/g/f/g/ a/g/a/f/ | %43
 g/a/g/a/ b/a/b/a/ g/a/g/a/ b/a/=c'/b/ | ag f2 e/f/e/f/ g/f/g/f/ | %45
 e/f/e/f/ g/f/g/f/ e/f/e/f/ g/f/g/e/ | f/g/f/g/ a/g/a/g/"^Tutti" f/!f!F/G/A/ B/c/d/e/ | %47
 f/f/f/g/ a/a/a/g/ f/F/G/A/ B/c/d/e/ | f/f/f/g/ a/a/a/g/ f/f/f/g/ a/a/a/g/ | %49
 f/f/f/g/ a/a/a/g/ f/A/d/e/ f/g/a/d/ | bB,EF G/B/c/d/ e/f/g/e/ | aA,DE F/A/B/c/ d/e/f/d/ | %52
 gG,B,E A,ecA |"^Solo" f2 F2 z dfb | g2 E2 z ceg | a2 F2 z Adf | b2 G2 z egb | %57
 c'/e/A/B/ c/d/c/d/ e/f/e/f/ g/f/g/e/ |"^Tutti" f/e/d/e/ f/e/f/d/ eA A,2 | %59
 d'/c'/b/c'/ d'/c'/d'/b/ c'c F2 | b/a/g/a/ b/a/b/c'/ d'ada | bG,A,c d2 z a | bG,A,c dbag | %63
 fd'ec' d'c'/b/ a/g/f/e/ | f/g/a/f/ e/f/g/e/ dc/B/ A/G/F/E/ | F/G/A/F/ E/F/G/E/ D2 z f | %66
"^Solo" A/a/f/a/ A/a/f/a/ A/a/f/a/ A/a/f/a/ | A/a/f/a/ A/a/g/f/ g/d/B/d/ G/d/B/d/ | %68
 g/e/d/e/ c/e/d/e/ g/e/d/e/ c/e/d/e/ | g/e/d/e/ c/f/e/f/ d/B/d/f/ d/B/d/f/ | %70
 b/a/^g/f/ b/a/g/f/ g/e/g/b/ g/e/g/b/ | c'/b/^a/^g/ c'/b/a/g/ a/f/a/c'/ a/f/a/c'/ | %72
 d'/c'/b/^a/ d'/c'/b/a/ b/a/b/d'/ b/a/b/d'/ | c'/b/c'/d'/ c'/d'/b/c'/ ^a/b/c'/b/ c'/a/b/c'/ | %74
"^Tutti" d'/c'/b/c'/ d'/c'/d'/b/ c'f F2 | b/a/g/a/ b/a/b/g/ ad D2 | g/f/e/f/ g/f/g/e/ fF F2 | %77
 BF F2 fBBf | e/c'/e/c'/ e/c'/e/c'/ d/d'/d/d'/ d/d'/d/d'/ | d/^g/d/g/ d/g/d/g/ c/a/c/a/ c/a/c/a/ | %80
 ^d/a/d/a/ d/a/d/a/ B/g/B/g/ f/e/=d/c/ | B/b/B/b/ e/b/e/b/ ^aF^Ac | fBdf gG/F/ E/D/C/B,/ | %83
 A,Ace fF/G/ F/E/D/C/ | DB,Bd eg/f/ e/d/c/B/ | ^AFcf"^Solo" df/e/ d/c/B/f/ | gGF^a b2 z f | %87
 g2 z2 z ED"^Tutti"f | ed Tc2 B2 z!pp! a | gf e2 d2 z!f! d/f/ | %90
 d/^g/d/g/ c/a/c/a/ ^d/a/d/a/ e/g/e/g/ | e/^a/e/a/ d/b/d/b/ c/b/c/b/ c/a/c/a/ | %92
 B/a/B/a/ B/g/e/g/ e/f/e/f/ d/f/d/f/ | c/f/c/f/ B/e/B/e/ ^Ac F2 | d'/c'/b/c'/ d'/c'/d'/b/ c'f F2 | %95
 b/a/g/a/ b/a/b/g/ ad D2 | g/f/e/f/ g/f/g/e/ fBB,f | ed c2!p! (.B.B.B.B) | BBBB BBBB | %99
 BBBB!f! ^a2 z a | ba/g/ f/e/d/c/ d/e/f/d/ c/d/e/c/ | BA/G/ FE D/E/F/D/ Cf | ed/c/ c>B B2 z G | %103
 F2 ED C3 B, |[Q:1/4=72]"^Adagio" B,8 ||[K:E][Q:1/4=63]"^Aria - Larghetta e piano"!p! B4 G2 | E6 | %107
 c2 F2 GA | G6 | g6 | c6 | a4 f2 | d4 e2 | f2 (g2 e2) | c2 ^A2 B2 | e2 c3 B | B6 :: b6 | e6 | %119
 a4 f2 | d3 c B2 | g2 e2 c2 | a2 g2 f2 | ed d3 c | c6 | B6 | A2 G2 F2 | G2 e2 ^A2 | B6 | a4 c2 | %130
 B4 e2 | GF F3 E | E6 :: B4 G2 | E6 | c2 F2 GA | G6 | g4 e2 | c6 | a4 f2 | d4 e2 | f2 Tg3 f/g/ | %142
 ^a3 g/a/ b2 | Be d2 c>B | B6 |!p! (GA)(BG)(AF) | EDEede | FedcBA | GABGFE | g3 f ed | cBAGFE | %151
 c'bagfe | dcBdeB | fBgdcB | ^Acfdec | dBcedc | BDFBdf |!f! b6 | e6 | a4 f2 | d3 c B2 | g2 e2 c2 | %162
 a3 g f2 | ed d3 c | c6 | B6 | A6 | G2 e2 ^A2 | B6 | a4 c2 | B4 e2 | GF F3 E | E6 |!p! bagfed | %174
 edcBAG | agfedc | dcBAGF | gfedcg | ac^Bgcf | edecG^B | cdefgB | BagfgB | AgfefA | GedcB^A | %184
 Bcdefg |!f! a4 c2 | B4 e2 | GF F3 E | E6 :: %189
[K:D][M:4/4][Q:1/4=48]"^Largo""^Solo" z/ B/d/B/ ^GG z/ B/d/B/ GG | %190
 z/ (^e/^g/e/) cc z/ c/f/c/ A/A/c/A/ | FF z/ F/A/F/ ^dd z/ d/f/d/ | ee z/ G/B/G/ cc z/ c/e/c/ | %193
 gg z/ E/G/E/ D/(d/f/d/) B/F/B/F/ | F2 E2 F4 |][Q:1/4=132]"^Allegro" B>B c>c d>f B>B | %196
 c>c d>d e>g c>e | ^A>c F>A B>c d>e | f>c f>e d>c B>b | a>a ^g>g f2 z2 | b>b a>a ^g2 z2 | %201
 c'>c' b>b a>^g f>f | f>^g T^e>f f2 z2 | d>d c>c B2 z2 | e>e d>d c2 z2 | f>f e>e d>c B>b | %206
 b>b a>a a3/2b/4f/4 g>g | g3/2a/4e/4 f>f g>f b>e | f>c B>B c>A c>f | e>e d>c d3 d | %210
 d>d c>B A>^G F>G | ^E3 E F2 z2 | z8 | z8 | z8 | A>A B>B c>e A>A | B>B c>c d>f B>d | %217
 ^G>B E>G A>B c>d | e>B e>d c>e a>g | (3fgf (3efe d>f a>d | T=c4 B2 g2- | g>g f>e f>e d>e | %222
 Tc3 d/c/ d>A d>f | T^d3 e/d/ e>B e>^g | ^e3 e f>c ^a>f | d'>d' c'>c' b3 z/ b/ | %226
 (3aba g>f g3 z/ g/ | (3fgf (3efc (3ded c>f | B4 ^A3 z/ c/ | (3ded (3cdc B3 z/ ^d/ | %230
 (3efe (3ded c3 z/ e/ | (3fgf (3efe ^d3 z/ f/ | (3B=cB (3ABA G2 z2 | (3gag (3fgf e2 z2 | %234
 (3aba (3gag f2 z2 | (3b=c'b (3aba g>f e>f | ^d4 e3 z/ f/ | (3gag (3fgf (3efe (3ded | %238
 (3gag (3fgf (3efe (3ded | (3gag (3fgf (3efe (3ded | (3=cdc B>g ^A2 z2 | (3ded (3cdc B2 z2 | %242
 (3efe (3ded c2 z2 | (3fgf (3efe d>f B>b | (3aba g>f g3 z/ g/ | f>^e f>^g e2 z2 | z8 | %247
 f>f ^g>g a>c' f>f | ^g>g a>a b>d' g>b | ^e>^g c>^e (3fgf ^A>c | (3FGF (3EFE D2 z2 | %251
 (3FGF F>F B3 z/ e/ | ^a3 b/a/ b>f b>d' | c'3 d'/c'/ b>f g2- | g>f f>e f>c (3cdc | %255
 (3ded ^d>d (3efe f>f | (3gag ^g>g (3^aba b>b | (3c'd'c' d'>d' ^a>a b>b | f>f g>g ^A2 z2 | %259
 z4 z z/ g/ f>e | d2 c>B ^A3 B | B8 |] %262

